src/images/modal-saas-cloud.svg

<svg xmlns="http://www.w3.org/2000/svg" width="61" height="57" fill="none" viewBox="0 0 61 57"><path fill="#F96132" fill-rule="evenodd" d="M0 0H60.4944V56.1928H0V0Z" clip-rule="evenodd"/><path fill="#769FD1" fill-rule="evenodd" stroke="#35416B" stroke-linecap="round" stroke-linejoin="round" stroke-width="6.323" d="M8.64311 8.04333H51.9352V47.154H8.64311V8.04333Z" clip-rule="evenodd"/><path fill="#F7A501" fill-rule="evenodd" d="M40.3875 15.2675C40.4774 15.2659 40.5643 15.3001 40.6291 15.3625C40.6939 15.4249 40.7313 15.5104 40.7332 15.6003L40.7245 18.0055C40.7219 18.0956 40.6838 18.181 40.6185 18.243C40.5532 18.3051 40.466 18.3388 40.3759 18.3369C40.2859 18.3381 40.199 18.3036 40.1343 18.241C40.0695 18.1784 40.0321 18.0927 40.0302 18.0026L40.0389 15.5989C40.0398 15.5542 40.0496 15.5101 40.0676 15.4692C40.0857 15.4282 40.1117 15.3913 40.1441 15.3605C40.1765 15.3297 40.2147 15.3056 40.2565 15.2896C40.2983 15.2737 40.3428 15.2661 40.3875 15.2675Z" clip-rule="evenodd"/><path fill="#F7A501" fill-rule="evenodd" d="M50.0157 23.5596C50.0208 23.6496 49.99 23.738 49.9301 23.8053C49.8701 23.8726 49.7859 23.9133 49.696 23.9185L47.2947 24.0024C47.2501 24.003 47.2058 23.9948 47.1643 23.9782C47.1228 23.9617 47.085 23.9371 47.0531 23.9059C47.0211 23.8747 46.9956 23.8376 46.978 23.7965C46.9604 23.7555 46.951 23.7114 46.9504 23.6667C46.9453 23.5767 46.9761 23.4884 47.036 23.4211C47.096 23.3538 47.1802 23.313 47.2701 23.3078L49.6728 23.2239C49.7174 23.2233 49.7617 23.2316 49.803 23.2481C49.8444 23.2647 49.8821 23.2893 49.914 23.3205C49.9458 23.3517 49.9712 23.3889 49.9887 23.4299C50.0061 23.4709 50.0153 23.515 50.0157 23.5596Z" clip-rule="evenodd"/><path fill="#F7A501" fill-rule="evenodd" d="M44.7676 16.0272C44.8069 16.0462 44.8421 16.0728 44.8711 16.1055C44.9001 16.1381 44.9224 16.1762 44.9366 16.2175C44.9509 16.2588 44.9568 16.3024 44.9541 16.346C44.9514 16.3896 44.9402 16.4323 44.9209 16.4715L43.8722 18.635C43.8533 18.6743 43.8269 18.7094 43.7944 18.7385C43.7619 18.7675 43.7241 18.7899 43.683 18.8043C43.6418 18.8186 43.5983 18.8248 43.5548 18.8223C43.5113 18.8198 43.4688 18.8088 43.4295 18.7898C43.3502 18.7514 43.2893 18.6831 43.2602 18.5998C43.2312 18.5164 43.2364 18.425 43.2748 18.3456L44.3235 16.1821C44.3622 16.1029 44.4306 16.0423 44.5137 16.0133C44.5969 15.9843 44.6881 15.9893 44.7676 16.0272Z" clip-rule="evenodd"/><path fill="#F7A501" fill-rule="evenodd" d="M49.424 27.9705C49.3888 28.0505 49.3235 28.1133 49.2422 28.1453C49.1609 28.1772 49.0703 28.1758 48.9901 28.1413L46.7885 27.1761C46.7085 27.1408 46.6458 27.0754 46.6138 26.9941C46.5818 26.9128 46.5833 26.8222 46.6178 26.7419C46.653 26.662 46.7183 26.5992 46.7996 26.5672C46.8809 26.5352 46.9715 26.5366 47.0517 26.5712L49.2519 27.5364C49.3321 27.5714 49.3952 27.6366 49.4274 27.718C49.4597 27.7993 49.4585 27.8901 49.424 27.9705Z" clip-rule="evenodd"/><path fill="#F7A501" fill-rule="evenodd" d="M35.4692 16.6625C35.4322 16.6856 35.4001 16.7157 35.3748 16.7512C35.3495 16.7866 35.3314 16.8268 35.3216 16.8692C35.3118 16.9117 35.3104 16.9557 35.3176 16.9987C35.3249 17.0417 35.3405 17.0829 35.3636 17.1198L36.6366 19.1603C36.6834 19.2348 36.7577 19.2877 36.8434 19.3074C36.929 19.3272 37.019 19.3123 37.0937 19.2659C37.1308 19.243 37.1631 19.213 37.1885 19.1775C37.214 19.1421 37.2321 19.1019 37.242 19.0594C37.2518 19.0168 37.2531 18.9728 37.2457 18.9297C37.2384 18.8867 37.2226 18.8455 37.1993 18.8086L35.9263 16.7682C35.8795 16.6937 35.8052 16.6408 35.7196 16.621C35.6339 16.6012 35.5439 16.6161 35.4692 16.6625Z" clip-rule="evenodd"/><path fill="#F7A501" fill-rule="evenodd" d="M48.4332 18.6929C48.3836 18.6201 48.3072 18.5699 48.2207 18.5533C48.1342 18.5368 48.0447 18.5552 47.9717 18.6046L45.9841 19.9548C45.9114 20.0044 45.8612 20.0808 45.8447 20.1674C45.8281 20.2539 45.8466 20.3435 45.8959 20.4164C45.9455 20.4892 46.0219 20.5394 46.1084 20.556C46.1949 20.5725 46.2844 20.5541 46.3574 20.5047L48.3449 19.1545C48.3811 19.1301 48.4121 19.0987 48.4362 19.0623C48.4602 19.0258 48.4768 18.985 48.485 18.942C48.4932 18.8991 48.4928 18.855 48.4839 18.8123C48.475 18.7695 48.4578 18.7289 48.4332 18.6929Z" clip-rule="evenodd"/><path fill="#F7A501" fill-rule="evenodd" d="M34.9514 25.1616C34.9514 22.2833 37.3194 19.9519 40.2385 19.9519C43.1576 19.9519 45.5256 22.2861 45.5256 25.1616C45.5256 28.0371 43.1591 30.3714 40.2385 30.3714C37.3179 30.3714 34.9514 28.04 34.9514 25.1616Z" clip-rule="evenodd"/><path fill="#fff" fill-rule="evenodd" d="M13.5208 35.1079L47.2253 35.3713C47.2253 35.3713 48.2061 29.5986 45.0295 27.9069C41.3046 25.9229 38.0991 28.2788 38.0991 28.2788C38.0991 28.2788 38.8006 19.8593 30.3065 20.3919C23.0536 20.8477 23.2055 27.1645 23.2055 27.1645C23.2055 27.1645 20.3688 25.6754 17.8532 26.2441C11.7459 27.6233 13.5208 35.1079 13.5208 35.1079Z" clip-rule="evenodd"/></svg>

<svg fill="none" viewBox="0 0 61 57"><path fill="#F96132" fill-rule="evenodd" d="M0 0h60.494v56.193H0V0z" clip-rule="evenodd"/><path fill="#769FD1" fill-rule="evenodd" stroke="#35416B" stroke-linecap="round" stroke-linejoin="round" stroke-width="6.323" d="M8.643 8.043h43.292v39.111H8.643V8.044z" clip-rule="evenodd"/><path fill="#F7A501" fill-rule="evenodd" d="M40.388 15.268a.34.34 0 01.345.332l-.008 2.406a.341.341 0 01-.35.33.341.341 0 01-.345-.333l.009-2.404a.34.34 0 01.349-.332zm9.628 8.292a.34.34 0 01-.32.359l-2.401.083a.339.339 0 01-.345-.335.34.34 0 01.32-.36l2.403-.083a.339.339 0 01.343.336zm-5.248-7.533a.33.33 0 01.153.444l-1.049 2.164a.332.332 0 11-.597-.29l1.049-2.163a.334.334 0 01.444-.155zm4.656 11.944a.331.331 0 01-.434.17l-2.202-.965a.332.332 0 01-.17-.434.331.331 0 01.434-.17l2.2.964a.331.331 0 01.172.434zM35.469 16.663a.331.331 0 00-.105.457l1.273 2.04a.332.332 0 00.562-.351l-1.273-2.04a.333.333 0 00-.457-.106zm12.964 2.03a.333.333 0 00-.461-.088l-1.988 1.35a.333.333 0 00.373.55l1.988-1.35a.333.333 0 00.088-.462zm-13.482 6.469c0-2.879 2.368-5.21 5.288-5.21 2.919 0 5.287 2.334 5.287 5.21 0 2.875-2.367 5.21-5.288 5.21-2.92 0-5.287-2.332-5.287-5.21z" clip-rule="evenodd"/><path fill="#fff" fill-rule="evenodd" d="M13.52 35.108l33.705.263s.981-5.772-2.196-7.464c-3.724-1.984-6.93.372-6.93.372s.702-8.42-7.792-7.887c-7.253.456-7.101 6.773-7.101 6.773s-2.837-1.49-5.353-.92c-6.107 1.378-4.332 8.863-4.332 8.863z" clip-rule="evenodd"/></svg>
